X:119
T:Quick March. JJo.119
S:J.Jones MS,1801,N.Shrops.
A:N Shropshire
Z:Neil Brookes 2006
M:4/4
L:1/8
Q:1/4=160
K:F
a2a>aa3g|f2f>fg2z2|afac’ afac’|g2g>gg2z2|!
a2a>aa3g|f2f>fg2z2|a>b c’>b a2g2|f2f>ff2z2::!
g2g>gg2z2|agac’g2z2|agac’ agac’|g2g>gg2z2|!
a2a>aa3g|f2f>fg2z2|a>b c’>b a2(3gfg|f2f>ff2z2:|

